public/images/snow-icon.svg

<svg width="24" height="24" viewBox="0 0 24 24" fill="none" xmlns="http://www.w3.org/2000/svg">
<path d="M21.2587 16.0296L19.5789 15.0952L21.0401 14.7174C21.4001 14.624 21.6143 14.2665 21.5158 13.9212L21.3401 13.2915C21.2458 12.9462 20.873 12.739 20.5131 12.8324L17.0979 13.714L14.0212 11.9996L17.1022 10.2852L20.5174 11.1668C20.8773 11.2602 21.2458 11.053 21.3444 10.7077L21.5201 10.078C21.6143 9.73273 21.4044 9.37523 21.0444 9.2818L19.5832 8.90398L21.263 7.96961C21.5843 7.79086 21.6957 7.39273 21.5115 7.07992L21.173 6.51523C20.9887 6.20242 20.5731 6.0968 20.2517 6.27555L18.572 7.20992L18.9619 5.80023C19.0562 5.45492 18.8462 5.09742 18.4863 5.00398L17.8349 4.83742C17.475 4.74398 17.1065 4.95117 17.0079 5.29648L16.0952 8.58711L13.0143 10.3015V6.86867L15.5124 4.45961C15.7738 4.20773 15.7738 3.79336 15.5124 3.54148L15.0368 3.08242C14.7754 2.83055 14.3469 2.83055 14.0855 3.08242L13.0186 4.1143V2.24961C13.0186 1.89211 12.7186 1.59961 12.3458 1.59961H11.6731C11.3003 1.59961 11.0003 1.89211 11.0003 2.24961V4.12242L9.93333 3.09055C9.67194 2.83867 9.24344 2.83867 8.98205 3.09055L8.48927 3.54961C8.22789 3.80148 8.22789 4.21586 8.48927 4.46773L10.9874 6.8768V10.3096L7.90651 8.59523L6.9938 5.30461C6.89953 4.9593 6.52673 4.75211 6.16679 4.84555L5.51546 5.01211C5.15552 5.10555 4.94127 5.46305 5.03982 5.80836L5.42976 7.21805L3.75003 6.28367C3.42865 6.10492 3.01729 6.21055 2.82875 6.52336L2.49023 7.08805C2.30597 7.40086 2.4131 7.79492 2.73876 7.97773L4.41849 8.91211L2.9573 9.2818C2.59735 9.37523 2.3831 9.73273 2.48166 10.078L2.65734 10.7077C2.75161 11.053 3.12441 11.2602 3.48436 11.1668L6.89953 10.2852L9.98046 11.9996L6.89953 13.714L3.48436 12.8324C3.12441 12.739 2.7559 12.9462 2.65734 13.2915L2.48166 13.9212C2.38739 14.2665 2.59735 14.624 2.9573 14.7174L4.41849 15.0952L2.73876 16.0296C2.41738 16.2084 2.30597 16.6065 2.49023 16.9193L2.82875 17.484C3.013 17.7968 3.42865 17.9024 3.75003 17.7237L5.42976 16.7893L5.03982 18.199C4.94555 18.5443 5.15552 18.9018 5.51546 18.9952L6.16679 19.1618C6.52673 19.2552 6.89524 19.048 6.9938 18.7027L7.90651 15.4121L10.9874 13.6977V17.1305L8.48927 19.5396C8.22789 19.7915 8.22789 20.2059 8.48927 20.4577L8.96491 20.9168C9.2263 21.1687 9.6548 21.1687 9.91619 20.9168L10.9832 19.8849V21.7496C10.9832 22.1071 11.2831 22.3996 11.6559 22.3996H12.3287C12.7015 22.3996 13.0014 22.1071 13.0014 21.7496V19.8768L14.0684 20.9087C14.3298 21.1605 14.7583 21.1605 15.0197 20.9087L15.4953 20.4496C15.7567 20.1977 15.7567 19.7834 15.4953 19.5315L12.9971 17.1224V13.6896L16.0781 15.404L16.9908 18.6946C17.085 19.0399 17.4578 19.2471 17.8178 19.1537L18.4691 18.9871C18.8291 18.8937 19.0433 18.5362 18.9447 18.1909L18.5548 16.7812L20.2345 17.7155C20.5559 17.8943 20.9673 17.7887 21.1558 17.4759L21.4943 16.9112C21.6915 16.6065 21.5843 16.2084 21.2587 16.0296Z" fill="#0F76D1"/>
</svg>

<svg xmlns="http://www.w3.org/2000/svg" width="24" height="24" fill="none"><path fill="#0F76D1" d="m21.259 16.03-1.68-.935 1.461-.378a.646.646 0 0 0 .476-.796l-.176-.63c-.094-.345-.467-.552-.827-.459l-3.415.882L14.02 12l3.081-1.715 3.415.882a.68.68 0 0 0 .827-.46l.176-.629a.65.65 0 0 0-.476-.796l-1.46-.378 1.679-.934a.64.64 0 0 0 .248-.89l-.338-.565a.69.69 0 0 0-.921-.24l-1.68.935.39-1.41a.65.65 0 0 0-.476-.796l-.651-.167a.68.68 0 0 0-.827.46l-.913 3.29-3.08 1.715V6.869l2.497-2.41a.635.635 0 0 0 0-.918l-.475-.459a.693.693 0 0 0-.952 0L13.02 4.114V2.25c0-.358-.3-.65-.673-.65h-.673a.66.66 0 0 0-.673.65v1.872L9.933 3.091a.693.693 0 0 0-.951 0l-.493.459a.636.636 0 0 0 0 .918l2.498 2.409v3.433l-3.08-1.715-.913-3.29c-.094-.346-.467-.553-.827-.46l-.652.167a.646.646 0 0 0-.475.796l.39 1.41-1.68-.934a.69.69 0 0 0-.921.24l-.339.564a.64.64 0 0 0 .249.89l1.68.934-1.462.37a.646.646 0 0 0-.475.796l.175.63c.095.345.467.552.827.459l3.416-.882L9.98 12 6.9 13.714l-3.416-.882a.68.68 0 0 0-.827.46l-.175.63a.65.65 0 0 0 .475.795l1.461.378-1.68.935a.64.64 0 0 0-.248.89l.339.564c.184.313.6.418.921.24l1.68-.935-.39 1.41a.65.65 0 0 0 .475.796l.652.167a.68.68 0 0 0 .827-.46l.913-3.29 3.08-1.714v3.433L8.49 19.54a.635.635 0 0 0 0 .918l.476.459c.261.252.69.252.951 0l1.067-1.032v1.865c0 .357.3.65.673.65h.673a.66.66 0 0 0 .672-.65v-1.873l1.067 1.032c.262.252.69.252.952 0l.475-.46a.635.635 0 0 0 0-.918l-2.498-2.409V13.69l3.081 1.714.913 3.29c.094.346.467.553.827.46l.651-.167a.646.646 0 0 0 .476-.796l-.39-1.41 1.68.934a.69.69 0 0 0 .92-.24l.34-.564a.617.617 0 0 0-.236-.881"/></svg>
